X:150
T:A la mar fui por naranxes
R:Xiraldilla
C:Tradicional
S:Música Tradicional Asturiana, (C) Tello & Tito. Asturies, 2001.
S:http://pagina.de/MusTradAst <telloytito@asturies.org>
A:Asturies
Z:Les cuarenta principales
M:2/4
L:1/8
Q:1/4=116
K:Cm
|: CD EF|G3 F|A2 G2|GG GG|F3 E|D2 C2 :|
|: DE DC|=B,4|DD DE|F3 E|[1 D2 C2 :|[2 GF ED|C4-|C4|


